Adwaita++/mimetypes/16/text-x-readme.svg

<svg height="16" viewBox="0 0 16 16" width="16" xmlns="http://www.w3.org/2000/svg">
  <g fill="#474747" fill-rule="evenodd">
    <path d="m8.353873 1.953721c0-1.074734.928102-1.953721 2.002633-1.953721.977317 0 1.685468.658937 1.685468 1.660962 0 1.124051-.9281 1.954633-2.026835 1.954633-1.001619-.000101-1.661266-.65995-1.661266-1.661874zm-1.318683 4.812254c.171342-.439089-.048506-.659038-.244253-.659038-.903696 0-2.076152 2.125165-2.515038 2.125165-.171342 0-.317873-.171343-.317873-.317874 0-.439798 1.07443-1.465216 1.392303-1.78319.97671-.928203 2.246786-1.636557 3.663191-1.636557 1.050228 0 2.173975.634835 1.294379 3.004861l-1.758379 4.763139c-.146431.36638-.414886.97762-.414886 1.368304 0 .170531.097113.341975.292556.341975.732456 0 2.076051-2.076659 2.418228-2.076659.122026 0 .292558.14633.292558.366279 0 .708354-2.857014 3.73762-5.323748 3.73762-.879594 0-1.490025-.414886-1.490025-1.343089 0-1.172556.83038-3.175696 1.001722-3.591392 0 0 1.709265-4.299544 1.709265-4.299544z" opacity=".3"/>
    <path d="m8.353873 1.953721c0-1.074734.928102-1.953721 2.002633-1.953721.977317 0 1.685468.658937 1.685468 1.660962 0 1.124051-.9281 1.954633-2.026835 1.954633-1.001619-.000101-1.661266-.65995-1.661266-1.661874zm-1.318683 4.812254c.171342-.439089-.048506-.659038-.244253-.659038-.903696 0-2.076152 2.125165-2.515038 2.125165-.171342 0-.317873-.171343-.317873-.317874 0-.439798 1.07443-1.465216 1.392303-1.78319.97671-.928203 2.246786-1.636557 3.663191-1.636557 1.050228 0 2.173975.634835 1.294379 3.004861l-1.758379 4.763139c-.146431.36638-.414886.97762-.414886 1.368304 0 .170531.097113.341975.292556.341975.732456 0 2.076051-2.076659 2.418228-2.076659.122026 0 .292558.14633.292558.366279 0 .708354-2.857014 3.73762-5.323748 3.73762-.879594 0-1.490025-.414886-1.490025-1.343089 0-1.172556.83038-3.175696 1.001722-3.591392 0 0 1.709265-4.299544 1.709265-4.299544z"/>
  </g>
</svg>

<?xml version="1.0" encoding="UTF-8" standalone="no"?>
<svg
   xmlns:dc="http://purl.org/dc/elements/1.1/"
   xmlns:cc="http://creativecommons.org/ns#"
   xmlns:rdf="http://www.w3.org/1999/02/22-rdf-syntax-ns#"
   xmlns:svg="http://www.w3.org/2000/svg"
   xmlns="http://www.w3.org/2000/svg"
   xmlns:sodipodi="http://sodipodi.sourceforge.net/DTD/sodipodi-0.dtd"
   xmlns:inkscape="http://www.inkscape.org/namespaces/inkscape"
   style="isolation:isolate"
   width="16"
   height="16"
   viewBox="0 0 16 16"
   version="1.1"
   id="svg69"
   sodipodi:docname="gnome-mime-text-x-readme.svg"
   inkscape:version="0.92.4 (5da689c313, 2019-01-14)">
  <metadata
     id="metadata73">
    <rdf:RDF>
      <cc:Work
         rdf:about="">
        <dc:format>image/svg+xml</dc:format>
        <dc:type
           rdf:resource="http://purl.org/dc/dcmitype/StillImage" />
        <dc:title></dc:title>
      </cc:Work>
    </rdf:RDF>
  </metadata>
  <sodipodi:namedview
     pagecolor="#ffffff"
     bordercolor="#666666"
     borderopacity="1"
     objecttolerance="10"
     gridtolerance="10"
     guidetolerance="10"
     inkscape:pageopacity="0"
     inkscape:pageshadow="2"
     inkscape:window-width="793"
     inkscape:window-height="480"
     id="namedview71"
     showgrid="false"
     inkscape:zoom="14.75"
     inkscape:cx="8"
     inkscape:cy="8"
     inkscape:window-x="0"
     inkscape:window-y="27"
     inkscape:window-maximized="0"
     inkscape:current-layer="svg69" />
  <defs
     id="defs61">
    <style
       id="current-color-scheme"
       type="text/css">
   .ColorScheme-Text { color:#474747; } .ColorScheme-Highlight { color:#5294e2; }
  </style>
    <linearGradient
       id="arrongin"
       x1="0%"
       x2="0%"
       y1="0%"
       y2="100%">
      <stop
         offset="0%"
         style="stop-color:#dd9b44"
         id="stop3" />
      <stop
         offset="100%"
         style="stop-color:#ad6c16"
         id="stop5" />
    </linearGradient>
    <linearGradient
       id="aurora"
       x1="0%"
       x2="0%"
       y1="0%"
       y2="100%">
      <stop
         offset="0%"
         style="stop-color:#09D4DF"
         id="stop8" />
      <stop
         offset="100%"
         style="stop-color:#9269F4"
         id="stop10" />
    </linearGradient>
    <linearGradient
       id="fitdance"
       x1="0%"
       x2="0%"
       y1="0%"
       y2="100%">
      <stop
         offset="0%"
         style="stop-color:#1AD6AB"
         id="stop13" />
      <stop
         offset="100%"
         style="stop-color:#329DB6"
         id="stop15" />
    </linearGradient>
    <linearGradient
       id="oomox"
       x1="0%"
       x2="0%"
       y1="0%"
       y2="100%">
      <stop
         offset="0%"
         style="stop-color:#efefe7"
         id="stop18" />
      <stop
         offset="100%"
         style="stop-color:#8f8f8b"
         id="stop20" />
    </linearGradient>
    <linearGradient
       id="rainblue"
       x1="0%"
       x2="0%"
       y1="0%"
       y2="100%">
      <stop
         offset="0%"
         style="stop-color:#00F260"
         id="stop23" />
      <stop
         offset="100%"
         style="stop-color:#0575E6"
         id="stop25" />
    </linearGradient>
    <linearGradient
       id="sunrise"
       x1="0%"
       x2="0%"
       y1="0%"
       y2="100%">
      <stop
         offset="0%"
         style="stop-color:#FF8501"
         id="stop28" />
      <stop
         offset="100%"
         style="stop-color:#FFCB01"
         id="stop30" />
    </linearGradient>
    <linearGradient
       id="telinkrin"
       x1="0%"
       x2="0%"
       y1="0%"
       y2="100%">
      <stop
         offset="0%"
         style="stop-color:#b2ced6"
         id="stop33" />
      <stop
         offset="100%"
         style="stop-color:#6da5b7"
         id="stop35" />
    </linearGradient>
    <linearGradient
       id="60spsycho"
       x1="0%"
       x2="0%"
       y1="0%"
       y2="100%">
      <stop
         offset="0%"
         style="stop-color:#df5940"
         id="stop38" />
      <stop
         offset="25%"
         style="stop-color:#d8d15f"
         id="stop40" />
      <stop
         offset="50%"
         style="stop-color:#e9882a"
         id="stop42" />
      <stop
         offset="100%"
         style="stop-color:#279362"
         id="stop44" />
    </linearGradient>
    <linearGradient
       id="90ssummer"
       x1="0%"
       x2="0%"
       y1="0%"
       y2="100%">
      <stop
         offset="0%"
         style="stop-color:#f618c7"
         id="stop47" />
      <stop
         offset="20%"
         style="stop-color:#94ffab"
         id="stop49" />
      <stop
         offset="50%"
         style="stop-color:#fbfd54"
         id="stop51" />
      <stop
         offset="100%"
         style="stop-color:#0f83ae"
         id="stop53" />
    </linearGradient>
    <linearGradient
       id="cyberneon"
       x1="0%"
       x2="0%"
       y1="0%"
       y2="100%">
      <stop
         offset="0"
         style="stop-color:#0abdc6"
         id="stop56" />
      <stop
         offset="1"
         style="stop-color:#ea00d9"
         id="stop58" />
    </linearGradient>
  </defs>
  <g
     opacity=".3"
     id="g65">
    <path
       style="fill:currentColor"
       fill-rule="evenodd"
       class="ColorScheme-Text"
       d="M 8.353873 1.953721 C 8.353873 0.878987 9.281975 0 10.356506 0 C 11.333823 0 12.041974 0.658937 12.041974 1.660962 C 12.041974 2.785013 11.113874 3.615595 10.015139 3.615595 C 9.01352 3.615494 8.353873 2.955645 8.353873 1.953721 Z M 7.03519 6.765975 C 7.206532 6.326886 6.986684 6.106937 6.790937 6.106937 C 5.887241 6.106937 4.714785 8.232102 4.275899 8.232102 C 4.104557 8.232102 3.958026 8.060759 3.958026 7.914228 C 3.958026 7.47443 5.032456 6.449012 5.350329 6.131038 C 6.327039 5.202835 7.597115 4.494481 9.01352 4.494481 C 10.063748 4.494481 11.187495 5.129316 10.307899 7.499342 L 8.54952 12.262481 C 8.403089 12.628861 8.134634 13.240101 8.134634 13.630785 C 8.134634 13.801316 8.231747 13.97276 8.42719 13.97276 C 9.159646 13.97276 10.503241 11.896101 10.845418 11.896101 C 10.967444 11.896101 11.137976 12.042431 11.137976 12.26238 C 11.137976 12.970734 8.280962 16 5.814228 16 C 4.934634 16 4.324203 15.585114 4.324203 14.656911 C 4.324203 13.484355 5.154583 11.481215 5.325925 11.065519 C 5.325925 11.065519 7.03519 6.765975 7.03519 6.765975 Z"
       id="path63" />
  </g>
  <path
     style="fill:currentColor"
     fill-rule="evenodd"
     class="ColorScheme-Text"
     d="M 8.353873 1.953721 C 8.353873 0.878987 9.281975 0 10.356506 0 C 11.333823 0 12.041974 0.658937 12.041974 1.660962 C 12.041974 2.785013 11.113874 3.615595 10.015139 3.615595 C 9.01352 3.615494 8.353873 2.955645 8.353873 1.953721 Z M 7.03519 6.765975 C 7.206532 6.326886 6.986684 6.106937 6.790937 6.106937 C 5.887241 6.106937 4.714785 8.232102 4.275899 8.232102 C 4.104557 8.232102 3.958026 8.060759 3.958026 7.914228 C 3.958026 7.47443 5.032456 6.449012 5.350329 6.131038 C 6.327039 5.202835 7.597115 4.494481 9.01352 4.494481 C 10.063748 4.494481 11.187495 5.129316 10.307899 7.499342 L 8.54952 12.262481 C 8.403089 12.628861 8.134634 13.240101 8.134634 13.630785 C 8.134634 13.801316 8.231747 13.97276 8.42719 13.97276 C 9.159646 13.97276 10.503241 11.896101 10.845418 11.896101 C 10.967444 11.896101 11.137976 12.042431 11.137976 12.26238 C 11.137976 12.970734 8.280962 16 5.814228 16 C 4.934634 16 4.324203 15.585114 4.324203 14.656911 C 4.324203 13.484355 5.154583 11.481215 5.325925 11.065519 C 5.325925 11.065519 7.03519 6.765975 7.03519 6.765975 Z"
     id="path67" />
</svg>
